X:223
T:Vals efter Kungs Neta Johansson
T:(SvL Småland 223)
R:Vals
O:Markaryd, Småland
S:Kungs Neta Johansson
S:Nils Bernhard Ljunggren
B:Svenska Låtar Småland
N:Låten spelades i tredje läget.
Z:Till abc Jonas Brunskog
M:3/4
L:1/8
K:D
dz fz az|dz fz az|ez gz bz|ez gz bz|dz fz az|
dz fz az|Az cz ez|d2 z2 z2:| |:de fg ac'|b3 b b2-|
-b2 c'2 d'2|a3 g fe|d2 e2 f2|g3 f ed|A2 c2 e2|d4 z2:|

